X: 2
T: Tha Mi Sgith
R: strathspey
M: 4/4
L: 1/8
K: Ador
|: (3AAA a2 g<e g2 | e<dB>A G>AB<G |\
(3AAA a2 g<e g2 | e>dB>e A2 A2 :|
|: e>dB>A G>AB<G | e<dB>A B<d g2 |\
[1 e<dB>A G>AB<G | e<dB<e A2 A2 :|
[2 e<dB>d g>fg<d | e<dg<B A2 A2 |]


Tune 647	Setting 28129

